X: 188
T: Juan Xipian
%%abc-version 2.0
%%abcx-abcm2ps-target-version 5.9.1 (29 Sep 2008)
%%abc-creator hum2abc beta
%%abcx-conversion-date 2013/10/02 07:52:29
%%abc-edited-by Helmut Schaffrath
%%humdrum-veritas 283573606
%%humdrum-veritas-data 3725035894
%%continueall 1
%%barnumbers 0
L: 1/16
M: 2/4
K: G
d2 d2 e2 d g [I:setbarnb 1]| 
g e d ed4 | 
B2 A E G2 A B | 
G A E2D4 | 
B2 A Bd4 | 
B2 A E G2 A B | 
G2 A E D B, D E | 
G8 |]  



